assets/1dot1dot1dot1/mono.svg

<svg viewBox="0 0 24 24" xmlns="http://www.w3.org/2000/svg"><path d="m5.389 0a5.377 5.377 0 0 0 -5.389 5.389v13.221a5.377 5.377 0 0 0 5.389 5.39h13.221a5.377 5.377 0 0 0 5.39-5.389v-13.221a5.377 5.377 0 0 0 -5.389-5.39zm11.546 4.595h.942v3.122h.69v.868h-.69v1.201h-1.001v-1.201h-2.196v-.964zm-6.07.589h2.523v14.842h-3.094v-10.236h-3.614v-1.985c.95-.042 1.616-.103 1.997-.184.606-.13 1.1-.39 1.48-.779.26-.266.457-.62.592-1.064.077-.267.116-.464.116-.594zm5.989.73-1.341 1.806h1.365v-1.805z"/></svg>

<svg xmlns="http://www.w3.org/2000/svg" viewBox="0 0 24 24"><path d="M5.389 0A5.377 5.377 0 0 0 0 5.389V18.61A5.377 5.377 0 0 0 5.389 24H18.61A5.377 5.377 0 0 0 24 18.611V5.39A5.377 5.377 0 0 0 18.611 0zm11.546 4.595h.942v3.122h.69v.868h-.69v1.201h-1.001V8.585H14.68v-.964zm-6.07.589h2.523v14.842h-3.094V9.79H6.68V7.805q1.425-.063 1.997-.184.91-.195 1.48-.779.39-.399.592-1.064.116-.4.116-.594m5.989.73L15.513 7.72h1.365V5.915z"/></svg>
